X:1
T:Orielton House    tune 4   cut time
C:Unknown
R:Orielton House
I:abc2nwc
M:2/2
L:1/8
K:A
"_From John Playford's "The Dancing Master"  1728 ed."Bc|d2A2A2d2|c2A2A2d2|e2f2g2ag|fgef d2A/2B/2c|
d2A2A2d2|c2A2A2d2|e2f2gfef|d6:|
|:fg|a2e2e2f2|e3d c2e2|d2c2B2A2|^G6E2|
A3B c2d2|e2d2df e2|d2c2B3A|A6A2|d2A2A2dc|B2B2B2cd|
efef gfed|(c2c3)efg|agfe d2f2|edcB A2fg|a2ef gfef|d6:|
